ResearchGate.svg

<?xml version="1.0" encoding="UTF-8" standalone="no"?>
<!-- Created with Inkscape (http://www.inkscape.org/) -->

<svg
   xmlns:dc="http://purl.org/dc/elements/1.1/"
   xmlns:cc="http://creativecommons.org/ns#"
   xmlns:rdf="http://www.w3.org/1999/02/22-rdf-syntax-ns#"
   xmlns:svg="http://www.w3.org/2000/svg"
   xmlns="http://www.w3.org/2000/svg"
   xmlns:xlink="http://www.w3.org/1999/xlink"
   xmlns:sodipodi="http://sodipodi.sourceforge.net/DTD/sodipodi-0.dtd"
   xmlns:inkscape="http://www.inkscape.org/namespaces/inkscape"
   width="100"
   height="100"
   id="svg3932"
   version="1.1"
   inkscape:version="0.48.4 r9939"
   sodipodi:docname="ResearchGate.svg">
  <metadata
     id="metadata13">
    <rdf:RDF>
      <cc:Work
         rdf:about="">
        <dc:format>image/svg+xml</dc:format>
        <dc:type
           rdf:resource="http://purl.org/dc/dcmitype/StillImage" />
      </cc:Work>
    </rdf:RDF>
  </metadata>
  <defs
     id="defs11">
    <linearGradient
       y2="796.64795"
       x2="334.28577"
       y1="1009.505"
       x1="644.28564"
       gradientTransform="matrix(0.14285713,0,0,0.19999998,0,-110.4725)"
       gradientUnits="userSpaceOnUse"
       id="linearGradient3058"
       xlink:href="#linearGradient5322-1"
       inkscape:collect="always" />
    <linearGradient
       id="linearGradient5322-1">
      <stop
         style="stop-color:#000000;stop-opacity:0.37391305;"
         offset="0"
         id="stop5324-6" />
      <stop
         style="stop-color:#000000;stop-opacity:0;"
         offset="1"
         id="stop5326-3" />
    </linearGradient>
    <linearGradient
       y2="796.64795"
       x2="334.28577"
       y1="1009.505"
       x1="644.28564"
       gradientTransform="matrix(0.14285713,0,0,0.19999998,0,-110.4725)"
       gradientUnits="userSpaceOnUse"
       id="linearGradient3033"
       xlink:href="#linearGradient5322-1"
       inkscape:collect="always" />
  </defs>
  <sodipodi:namedview
     pagecolor="#ffffff"
     bordercolor="#666666"
     borderopacity="1"
     objecttolerance="10"
     gridtolerance="10"
     guidetolerance="10"
     inkscape:pageopacity="0"
     inkscape:pageshadow="2"
     inkscape:window-width="1920"
     inkscape:window-height="1145"
     id="namedview9"
     showgrid="false"
     inkscape:zoom="0.944"
     inkscape:cx="30.961248"
     inkscape:cy="170.53227"
     inkscape:window-x="-2"
     inkscape:window-y="-3"
     inkscape:window-maximized="1"
     inkscape:current-layer="svg3932" />
  <path
     inkscape:connector-curvature="0"
     style="fill:#666666;fill-opacity:1;display:inline"
     d="M 12.1375,0 C 5.4350792,0 0,5.43508 0,12.1375 L 0,87.86249 C 0,94.56492 5.4350792,100 12.1375,100 l 75.724999,0 C 94.564939,100 100,94.56492 100,87.86249 L 100,12.1375 C 100,5.43508 94.565181,0 87.862499,0 L 12.1375,0 z"
     id="path3034-3" />
  <g
     id="g2992"
     transform="matrix(0.2,0,0,0.2,1.8375,0)">
    <path
       inkscape:connector-curvature="0"
       id="path3032"
       d="m 55.8125,122.59413 0,254.81172 41.482942,0 0,-101.01786 47.537818,0 c 17.9657,0 25.68394,9.09513 25.68394,30.41519 0,2.09705 0.0229,5.59478 -0.25346,10.1384 -0.27261,6.64066 -0.28162,12.91192 -0.28162,16.75651 0,23.76662 1.08499,31.47494 6.3365,43.70776 l 44.52446,0 0,-9.43434 c -6.35709,-4.54362 -8.84294,-9.79656 -8.84294,-20.98085 -1.10558,-75.14446 -2.23207,-78.64516 -27.93692,-92.62552 22.6645,-11.1843 33.9918,-31.80809 33.9918,-62.91439 0,-20.27153 -5.5056,-38.78555 -15.17944,-51.36788 -9.12104,-11.88331 -21.84,-17.48874 -38.9765,-17.48874 l -108.08658,0 z m 41.482942,43.70776 50.016088,0 c 11.885,0 16.85061,1.37549 21.82572,6.61812 4.97511,5.24263 7.46299,13.99777 7.46299,25.88108 0,12.23282 -2.76427,22.0184 -7.46299,27.26102 -4.42232,4.89312 -9.94072,6.64628 -21.82572,6.64628 l -50.016088,0 0,-66.4065 z"
       style="fill:#ffffff;display:inline" />
    <path
       inkscape:connector-curvature="0"
       id="path3030"
       d="m 347.85948,122.59414 c 43.41028,0 73.51334,31.70212 77.95302,81.72675 l -34.7803,0 c -3.20644,-12.67291 -5.91632,-18.35736 -11.09591,-24.36031 -8.13947,-9.67143 -18.99756,-14.67252 -31.8233,-14.67252 -31.3245,0 -50.32593,31.67693 -50.32593,84.03604 0,50.02463 21.467,85.38783 51.31156,85.38783 14.30568,0 27.8723,-8.67258 36.75173,-23.34647 5.42625,-8.67094 7.88443,-17.02342 8.87106,-30.69682 l -40.94786,0 0,-41.68007 72.03895,0 0,131.40489 -22.21995,0 -4.42151,-32.02044 c -13.81238,27.34681 -30.09698,39.03283 -54.26855,39.03283 -48.58986,0 -84.12058,-53.7029 -84.12058,-127.40586 0,-75.70393 35.28127,-127.40585 87.07757,-127.40585 z"
       style="fill:#8ed324;fill-opacity:1;display:inline" />
  </g>
  <path
     style="fill:#000000;fill-opacity:0.78431373;display:inline"
     d="M 12.1375,0 C 5.435084,0 -2.0000165e-5,5.43508 0,12.1375 l 0,75.725 C 0,94.56491 5.435084,100.00002 12.1375,100 l 75.724999,0 C 94.564939,100 99.99998,94.56491 100,87.8625 l 0,-75.725 C 100,5.43508 94.565161,0 87.862499,0 L 12.1375,0 z M 18.19375,8 81.8,8 C 87.430236,8 92,12.56372 92,18.19375 L 92,81.8 C 91.999984,87.43002 87.43005,92 81.8,92 L 18.19375,92 C 12.56372,92.00002 8,87.43002 8,81.8 L 8,18.19375 C 7.999984,12.56372 12.56372,8 18.19375,8 z"
     id="path7-8-6-9"
     inkscape:connector-curvature="0" />
  <path
     inkscape:connector-curvature="0"
     style="fill:url(#linearGradient3033);fill-opacity:1;display:inline"
     d="M 8.66964,0 C 3.8822,0 0,5.435 0,12.1375 l 0,75.725 C 0,94.5649 3.8822,100 8.66964,100 l 82.66072,0 C 96.11781,100 100,94.5649 100,87.8625 l 0,-75.725 C 100,5.435 96.11798,0 91.33036,0 z"
     id="path3028-2-9-8"
     sodipodi:nodetypes="sssssssss" />
</svg>

<svg xmlns="http://www.w3.org/2000/svg" viewBox="0 0 100 100"><defs><linearGradient y2="796.65" x2="334.29" y1="1009.5" x1="644.29" gradientTransform="matrix(.14286 0 0 .2 0-110.47)" gradientUnits="userSpaceOnUse" id="0"><stop stop-opacity=".374"/><stop offset="1" stop-opacity="0"/></linearGradient></defs><path d="m12.138 0c-6.702 0-12.138 5.435-12.138 12.138v75.72c0 6.702 5.435 12.138 12.138 12.138h75.72c6.702 0 12.138-5.435 12.138-12.138v-75.72c0-6.702-5.435-12.138-12.138-12.138h-75.72" fill="#666"/><g transform="matrix(.2 0 0 .2 1.838 0)"><path d="m55.813 122.59v254.81h41.483v-101.02h47.538c17.966 0 25.684 9.1 25.684 30.415 0 2.097.023 5.595-.253 10.138-.273 6.641-.282 12.912-.282 16.757 0 23.767 1.085 31.475 6.337 43.708h44.524v-9.434c-6.357-4.544-8.843-9.797-8.843-20.981-1.106-75.14-2.232-78.65-27.937-92.63 22.665-11.184 33.992-31.808 33.992-62.914 0-20.272-5.506-38.786-15.179-51.37-9.121-11.883-21.84-17.489-38.976-17.489h-108.09m41.483 43.708h50.02c11.885 0 16.851 1.375 21.826 6.618 4.975 5.243 7.463 13.998 7.463 25.881 0 12.233-2.764 22.02-7.463 27.26-4.422 4.893-9.941 6.646-21.826 6.646h-50.02v-66.41" fill="#fff"/><path d="m347.86 122.59c43.41 0 73.51 31.702 77.953 81.73h-34.78c-3.206-12.673-5.916-18.357-11.1-24.36-8.139-9.671-18.998-14.673-31.823-14.673-31.32 0-50.33 31.677-50.33 84.04 0 50.02 21.467 85.39 51.31 85.39 14.306 0 27.872-8.673 36.752-23.346 5.426-8.671 7.884-17.02 8.871-30.697h-40.948v-41.68h72.04v131.4h-22.22l-4.422-32.02c-13.812 27.347-30.1 39.03-54.27 39.03-48.59 0-84.12-53.703-84.12-127.41 0-75.7 35.28-127.41 87.08-127.41" fill="#8ed324"/></g><path d="m12.138 0c-6.702 0-12.138 5.435-12.138 12.138v75.72c0 6.702 5.435 12.138 12.138 12.138h75.72c6.702 0 12.137-5.435 12.138-12.138v-75.72c0-6.702-5.435-12.138-12.138-12.138h-75.72m6.06 8h63.61c5.63 0 10.2 4.564 10.2 10.194v63.61c0 5.63-4.57 10.2-10.2 10.2h-63.61c-5.63 0-10.194-4.57-10.194-10.2v-63.61c0-5.63 4.564-10.194 10.194-10.194" fill-opacity=".784"/><path d="m8.67 0c-4.787 0-8.67 5.435-8.67 12.138v75.72c0 6.702 3.882 12.138 8.67 12.138h82.66c4.787 0 8.67-5.435 8.67-12.138v-75.72c0-6.703-3.882-12.138-8.67-12.138z" fill="url(#0)"/></svg>
